app/assets/images/visual-editor/icons/advanced.svg

<?xml version="1.0" encoding="utf-8"?>
<svg xmlns="http://www.w3.org/2000/svg" width="24" height="24" viewBox="0 0 24 24">
    <g id="settings" opacity=".75">
        <path id="gear" d="M20.869 13.476c.079-.482.131-.972.131-1.476s-.052-.994-.131-1.476l-2.463-.259c-.149-.556-.367-1.082-.648-1.57l1.558-1.924c-.576-.806-1.281-1.511-2.087-2.087l-1.924 1.558c-.488-.281-1.015-.499-1.57-.648l-.259-2.463c-.482-.079-.972-.131-1.476-.131s-.994.052-1.476.131l-.259 2.463c-.555.149-1.081.367-1.57.648l-1.924-1.557c-.805.576-1.51 1.281-2.086 2.086l1.558 1.924c-.281.488-.499 1.015-.648 1.57l-2.463.259c-.08.482-.132.972-.132 1.476s.052.994.131 1.476l2.463.259c.149.556.367 1.082.648 1.57l-1.558 1.924c.576.806 1.281 1.511 2.087 2.087l1.924-1.558c.488.281 1.015.499 1.57.648l.259 2.463c.482.079.972.131 1.476.131s.994-.052 1.476-.131l.259-2.463c.556-.149 1.082-.367 1.57-.648l1.924 1.558c.806-.576 1.511-1.281 2.087-2.087l-1.558-1.924c.281-.488.499-1.015.648-1.57l2.463-.259zm-8.869 2.522c-2.209 0-3.998-1.789-3.998-3.998s1.789-3.998 3.998-3.998 3.998 1.789 3.998 3.998-1.789 3.998-3.998 3.998z"/>
    </g>
</svg>

<?xml version="1.0" encoding="iso-8859-1"?>
<!DOCTYPE svg PUBLIC "-//W3C//DTD SVG 1.1//EN" "http://www.w3.org/Graphics/SVG/1.1/DTD/svg11.dtd">
<svg version="1.1" xmlns="http://www.w3.org/2000/svg" xmlns:xlink="http://www.w3.org/1999/xlink" x="0px" y="0px" width="24px"
	 height="24px" viewBox="0 0 24 24" style="enable-background:new 0 0 24 24;" xml:space="preserve">
<g id="settings" style="opacity:0.75;">
	<path id="gear" style="fill-rule:evenodd;clip-rule:evenodd;" d="M20.869,13.476C20.948,12.994,21,12.504,21,12
		s-0.052-0.994-0.131-1.476l-2.463-0.259c-0.149-0.556-0.367-1.082-0.648-1.57l1.558-1.924c-0.576-0.806-1.281-1.511-2.087-2.087
		l-1.924,1.558c-0.488-0.281-1.015-0.499-1.57-0.648l-0.259-2.463C12.994,3.052,12.504,3,12,3s-0.994,0.052-1.476,0.131
		l-0.259,2.463C9.71,5.743,9.184,5.961,8.695,6.242L6.771,4.685C5.966,5.261,5.261,5.966,4.685,6.771l1.558,1.924
		c-0.281,0.488-0.499,1.015-0.648,1.57l-2.463,0.259C3.052,11.006,3,11.496,3,12s0.052,0.994,0.131,1.476l2.463,0.259
		c0.149,0.556,0.367,1.082,0.648,1.57l-1.558,1.924c0.576,0.806,1.281,1.511,2.087,2.087l1.924-1.558
		c0.488,0.281,1.015,0.499,1.57,0.648l0.259,2.463C11.006,20.948,11.496,21,12,21s0.994-0.052,1.476-0.131l0.259-2.463
		c0.556-0.149,1.082-0.367,1.57-0.648l1.924,1.558c0.806-0.576,1.511-1.281,2.087-2.087l-1.558-1.924
		c0.281-0.488,0.499-1.015,0.648-1.57L20.869,13.476z M12,15.998c-2.209,0-3.998-1.789-3.998-3.998S9.791,8.002,12,8.002
		S15.998,9.791,15.998,12S14.209,15.998,12,15.998z"/>
</g>
</svg>
